X: 69
T:Fair Ellen Pugh
M:3/4
L:1/8
Q:130
S:Michael Raven (Hynde Horn)
A:Wales
Z:brian_martin12345@yahoo.com
K:G
d>c|B3cd2|A2B2c2|B2G2G2|G4A>G|F3GA2|E2F2G2|F2D2D2|D4D2|
A3BA2|A2F2D2|c3dc2|B4BA|G2B2d2|e2c2A2|G3AF2|G4||
